X: 1797
T: Su İçemem Testiden
C: Ramazan Şenses
O: Turkey
F: http://compmusic.upf.edu/node/140
N: muhayyer--turku--kapali_curcuna--su_icemem--diyarbakir
N: makam= muhayyer
N: form= turku
N: usul= kapali_curcuna = 10/8
M: 10/8
L: 1/16
K: C _2/4B ^3/4f  
Q: 1/4=240
%%MIDI tuningsystem comma53
d2e2 c2c2 B2c2 B2d2 B2A2  | A4 A4 G2B2 c2d6  | \
w:  ARANAĞME  |   | 
d2e2 c2c2 B2c2 B2d2 B2A2  | 
w:   | 
A4 A2A4A4A6  | d2e2 c2c2 B2c2 B2d2 B2A2  | \
w:   |  ARANAĞME  | 
A4 A4 G2B2 c2d6  | 
w:   | 
d2e2 c2c2 B2c2 B2d2 B2A2  | A4 a2a2 g2f2 g2a4g2  | \
w:   |   | 
a4 f2g4a4a6  | 
w:  *  Su  i çe mem   | 
a6g2 f2g2 a2a6  | g2a4a2 g2a2 f2g2 e4  | \
w:  tes ti *  den    |  Sen *  sin  *  be *  ni   | 
d2e4d4e4a4g2  | a4 f2g4a4a6  | 
w:  mest_ *  e den   SAZ  |  *  Su  i çe mem   | 
a6g2 f2g2 a2a6  | g2a4a2 g2a2 f2g2 e4  | \
w:  tes ti *  den    |  Sen *  sin  *  be *  ni   | 
d2e4d4e4a4g2  | a4 f4 g2a4a6  | 
w:  mest_ *  e den   SAZ  |  *  Â kı be ti   | 
a4 g2g2 f2g2 a2a6  | g2a2 a2a4g2 a2fg e4  | \
w:  ha yır_ ol *  sun    |  Se *  ni  de  ba *  na   | 
d2e2 d2d4e8-e2  | 
w:  dost_ *  *  e den    | 
c4 d2e4e2 g2e=f efd2  | d4 dgfg e2e8-e2  | \
w:  A ğa  yâ rim  *  nen   |  ni  nen  *  *  *  *  ni    | 
c4 d2e4e2 g2e=f efd2  | 
w:  Pa şa  yâ rim  *  nen   | 
d4 dgfg e2e8-e2  | f4 g2a4a4a4f2  | g4 a2a2 {_b}g2{a}=f2 {g}e2{f}d4c2  | 
w:  ni  nen  *  *  *  *  ni    |  Do la  kol la rın   |  sa rı  boy *  *  *  nu *  *  *  ma    | 
d4 e2c2 B2c4cd B2A2  | A8-A2B2 c2d6  | \
w:  Ya rı  de *  li kan  |  lı  a *  man    | 
d2e2 c2c2 B2c4cd B2A2  | 
w:  Şe *  *  ker *  li  bal  | 
A8-A2B2 c2d6  | d2e2 c2c2 B2c4cd B2A2  | \
w:  lı  a *  man    |  El *  *  ma  *  ya nak  | 
A8-A2B2 c2d6  | d2e2 c2c2 B2c4cd B2A2  | 
w:  lı  a *  man    |  Ki *  *  raz  *  du dak  | 
A4 A2A4A8-A2  | d2e2 c2c2 B2c2 B2d2 B2A2  | \
w:  lı    |  ARANAĞME  | 
A4 A4 G2B2 c2d6  | 
w:   | 
d2e2 c2c2 B2c2 B2d2 B2A2  | A4 A2A4A4A6  | \
w:   |   | 
d2e2 c2c2 B2c2 B2d2 B2A2  | 
w:  ARANAĞME  | 
A4 A4 G2B2 c2d6  | d2e2 c2c2 B2c2 B2d2 B2A2  | \
w:   |   | 
A4 a2a2 g2f2 g2a4g2  | 
w:   | 
a4 f2g4a4a6  | a6g2 f2g2 a2a6  | g2a4a2 g2a2 f2g2 e4  | \
w:  *  Su  i çe mem   |  tes ti *  den    |  Sen *  sin  *  be *  ni   | 
d2e4d4e4a4g2  | 
w:  mest_ *  e den   SAZ  | 
a4 f2g4a4a6  | a6g2 f2g2 a2a6  | g2a4a2 g2a2 f2g2 e4  | \
w:  *  Su  i çe mem   |  tes ti *  den    |  Sen *  sin  *  be *  ni   | 
d2e4d4e4a4g2  | 
w:  mest_ *  e den   SAZ  | 
a4 f4 g2a4a6  | a4 g2g2 f2g2 a2a6  | \
w:  *  Â kı be ti   |  ha yır_ ol *  sun    | 
g2a2 a2a4g2 a2fg e4  | 
w:  Se *  ni  de  ba *  na   | 
d2e2 d2d4e8-e2  | c4 d2e4e2 g2e=f efd2  | \
w:  dost_ *  *  e den    |  A ğa  yâ rim  *  nen   | 
d4 dgfg e2e8-e2  | 
w:  ni  nen  *  *  *  *  ni    | 
c4 d2e4e2 g2e=f efd2  | d4 dgfg e2e8-e2  | \
w:  Pa şa  yâ rim  *  nen   |  ni  nen  *  *  *  *  ni    | 
f4 g2a4a4a4f2  | 
w:  Do la  kol la rın   | 
g4 a2a2 {_b}g2{a}=f2 {g}e2{f}d4c2  | \
w:  sa rı  boy *  *  *  nu *  *  *  ma    | 
d4 e2c2 B2c4cd B2A2  | A8-A2B2 c2d6  | 
w:  Ya rı  de *  li kan  |  lı  a *  man    | 
d2e2 c2c2 B2c4cd B2A2  | A8-A2B2 c2d6  | \
w:  Şe *  *  ker *  li  bal  |  lı  a *  man    | 
d2e2 c2c2 B2c4cd B2A2  | 
w:  El *  *  ma  *  ya nak  | 
A8-A2B2 c2d6  | d2e2 c2c2 B2c4cd B2A2  | \
w:  lı  a *  man    |  Ki *  *  raz  *  du dak  | 
A4 A2A4A8-A2  | |


